X:1
T:Hin och Bonden
R:vals
H:efter Lars Vilhelm Johansson, Lima
A:Lima, Dalarna
D:Perjos Lars Halvarsson och Mattias Helje
Z:id:hn-vals-1
M:3/4
L:1/8
K:G
BBd | dc Bc AF | D2 FA c2 | cB Bd AF | G2 Bd g2 |
d>c Bc AF | D2 FA c2 | cB Bd AF | G3 :|
|: Bdg | b3 agf | g3 fed | cB ce dc | A3 Bcd | e4 d2 | dc ce cA | G3 :|
<end>
<start>
